rospo-icon-theme-classic-common/24x24/apps/netsurf.svg

<svg height="24" viewBox="0 0 24 24" width="24" xmlns="http://www.w3.org/2000/svg"><path d="m2.01075 12.206a9.9999998 9.9999998 0 0 0 -.01075.291 9.9999998 9.9999998 0 0 0 10 10 9.9999998 9.9999998 0 0 0 10-10 9.9999998 9.9999998 0 0 0 -.0105-.209 9.9999998 9.9999998 0 0 1 -9.9895 9.709 9.9999998 9.9999998 0 0 1 -9.989-9.791z" opacity=".2"/><path d="m17 3.3367461a9.9999998 9.9999998 0 0 0 -13.6602541 3.660254 9.9999998 9.9999998 0 0 0 3.660254 13.6602539 9.9999998 9.9999998 0 0 0 13.6602541-3.660254 9.9999998 9.9999998 0 0 0 -3.660254-13.6602539z" fill="#42b8fe"/><path d="m12 1.9970002a9.9999998 9.9999998 0 0 0 -10 9.9999998 9.9999998 9.9999998 0 0 0  .01075.209 9.9999998 9.9999998 0 0 1 9.989-9.7089998 9.9999998 9.9999998 0 0 1 9.9895 9.7909998 9.9999998 9.9999998 0 0 0  .0105-.291 9.9999998 9.9999998 0 0 0 -10-9.9999998z" fill="#fff" opacity=".2"/><path d="m26.721132 7.139029 1.350113 3.796569 3.639254-1.7299056-1.729906 3.6392536 3.796569 1.350113-3.796569 1.350113 1.729906 3.639253-3.639254-1.729906-1.350113 3.79657-1.350113-3.79657-3.639253 1.729906 1.729906-3.639254-3.79657-1.350112 3.79657-1.350113-1.729906-3.6392538 3.639254 1.7299058z" opacity=".2" transform="matrix(.39638784 .305104 -.305104 .39638784 9.239037 -4.782473)"/><path d="m26.721132 7.139029 1.350113 3.796569 3.639254-1.7299056-1.729906 3.6392536 3.796569 1.350113-3.796569 1.350113 1.729906 3.639253-3.639254-1.729906-1.350113 3.79657-1.350113-3.79657-3.639253 1.729906 1.729906-3.639254-3.79657-1.350112 3.79657-1.350113-1.729906-3.6392538 3.639254 1.7299058z" fill="#fff" transform="matrix(.39638784 .305104 -.305104 .39638784 9.239037 -5.282473)"/><g fill="none" stroke-linecap="round" stroke-linejoin="round"><path d="m7.5 3.496912c-2.4999999 8-.4703401 13.445365 5 19" opacity=".2" stroke="#000"/><path d="m7.5 2.9970002c-2.4999999 7.9999998-.4703401 13.4453648 5 18.9999998" stroke="#3f3f3f"/><path d="m22 12.996912c-5.632586 5.603964-11.5 6.5-19 4.5" opacity=".2" stroke="#000"/><path d="m22 12.497c-5.632586 5.603964-11.5 6.5-19 4.5" stroke="#3f3f3f"/></g></svg>

<svg xmlns="http://www.w3.org/2000/svg" width="24" height="24" version="1.1" viewBox="0 0 24 24">
 <path style="opacity:0.2" d="M 2.01075,12.206 A 9.9999998,9.9999998 0 0 0 2,12.497 a 9.9999998,9.9999998 0 0 0 10,10 9.9999998,9.9999998 0 0 0 10,-10 A 9.9999998,9.9999998 0 0 0 21.9895,12.288 9.9999998,9.9999998 0 0 1 12,21.997 9.9999998,9.9999998 0 0 1 2.011,12.206 Z"/>
 <path style="fill:#42b8fe" d="M 17,3.3367461 A 9.9999998,9.9999998 0 0 0 3.3397459,6.9970001 9.9999998,9.9999998 0 0 0 6.9999999,20.657254 9.9999998,9.9999998 0 0 0 20.660254,16.997 9.9999998,9.9999998 0 0 0 17,3.3367461 Z"/>
 <path style="opacity:0.2;fill:#ffffff" d="M 12,1.9970002 A 9.9999998,9.9999998 0 0 0 2,11.997 a 9.9999998,9.9999998 0 0 0 0.01075,0.209 9.9999998,9.9999998 0 0 1 9.989,-9.7089998 9.9999998,9.9999998 0 0 1 9.9895,9.7909998 9.9999998,9.9999998 0 0 0 0.0105,-0.291 9.9999998,9.9999998 0 0 0 -10,-9.9999998 z"/>
 <path style="opacity:0.2" d="m 26.721132,7.139029 1.350113,3.796569 3.639254,-1.7299056 -1.729906,3.6392536 3.796569,1.350113 -3.796569,1.350113 1.729906,3.639253 -3.639254,-1.729906 -1.350113,3.79657 -1.350113,-3.79657 -3.639253,1.729906 1.729906,-3.639254 -3.79657,-1.350112 3.79657,-1.350113 -1.729906,-3.6392538 3.639254,1.7299058 z" transform="matrix(0.39638784,0.305104,-0.305104,0.39638784,9.2390374,-4.782473)"/>
 <path style="fill:#ffffff" d="m 26.721132,7.139029 1.350113,3.796569 3.639254,-1.7299056 -1.729906,3.6392536 3.796569,1.350113 -3.796569,1.350113 1.729906,3.639253 -3.639254,-1.729906 -1.350113,3.79657 -1.350113,-3.79657 -3.639253,1.729906 1.729906,-3.639254 -3.79657,-1.350112 3.79657,-1.350113 -1.729906,-3.6392538 3.639254,1.7299058 z" transform="matrix(0.39638784,0.305104,-0.305104,0.39638784,9.2390374,-5.2824731)"/>
 <path style="opacity:0.2;fill:none;stroke:#000000;stroke-linecap:round;stroke-linejoin:round" d="m 7.5,3.496912 c -2.4999999,8 -0.4703401,13.445365 5,19"/>
 <path style="fill:none;stroke:#3f3f3f;stroke-linecap:round;stroke-linejoin:round" d="M 7.5,2.9970002 C 5.0000001,10.997 7.0296599,16.442365 12.5,21.997"/>
 <path style="opacity:0.2;fill:none;stroke:#000000;stroke-linecap:round;stroke-linejoin:round" d="m 22,12.996912 c -5.632586,5.603964 -11.5,6.5 -19,4.5"/>
 <path style="fill:none;stroke:#3f3f3f;stroke-linecap:round;stroke-linejoin:round" d="m 22,12.497 c -5.632586,5.603964 -11.5,6.5 -19,4.5"/>
</svg>
